icons/qutim-default/scalable/actions/application-exit.svg

<?xml version="1.0" encoding="UTF-8" standalone="no"?>
<!-- Created with Inkscape (http://www.inkscape.org/) -->

<svg
   xmlns:dc="http://purl.org/dc/elements/1.1/"
   xmlns:cc="http://creativecommons.org/ns#"
   xmlns:rdf="http://www.w3.org/1999/02/22-rdf-syntax-ns#"
   xmlns:svg="http://www.w3.org/2000/svg"
   xmlns="http://www.w3.org/2000/svg"
   xmlns:xlink="http://www.w3.org/1999/xlink"
   xmlns:sodipodi="http://sodipodi.sourceforge.net/DTD/sodipodi-0.dtd"
   xmlns:inkscape="http://www.inkscape.org/namespaces/inkscape"
   inkscape:version="0.48.4 r9939"
   version="1.1"
   id="svg2"
   height="1000"
   width="1000"
   sodipodi:docname="application-exit.svg">
  <defs
     id="defs4">
    <linearGradient
       id="linearGradient3290-7">
      <stop
         id="stop3292-2"
         offset="0"
         style="stop-color:#ba0000;stop-opacity:1;" />
      <stop
         id="stop3294-3"
         offset="1"
         style="stop-color:#ff331e;stop-opacity:1;" />
    </linearGradient>
    <linearGradient
       inkscape:collect="always"
       id="linearGradient3806-4">
      <stop
         style="stop-color:#fff6d5;stop-opacity:1;"
         offset="0"
         id="stop3808-8" />
      <stop
         style="stop-color:#fff6d5;stop-opacity:0;"
         offset="1"
         id="stop3810-8" />
    </linearGradient>
    <linearGradient
       inkscape:collect="always"
       xlink:href="#linearGradient3806-4"
       id="linearGradient3787"
       x1="509.04089"
       y1="70.941559"
       x2="509.04089"
       y2="934.64996"
       gradientUnits="userSpaceOnUse" />
    <linearGradient
       inkscape:collect="always"
       xlink:href="#linearGradient3290-7"
       id="linearGradient3022"
       gradientUnits="userSpaceOnUse"
       gradientTransform="matrix(5.3824132,5.3824132,-5.3824127,5.3824127,501.00017,-189.74218)"
       x1="104.43626"
       y1="106.05509"
       x2="24.201944"
       y2="24.447622" />
  </defs>
  <sodipodi:namedview
     id="base"
     pagecolor="#ffffff"
     bordercolor="#666666"
     borderopacity="1.0"
     inkscape:pageopacity="0.0"
     inkscape:pageshadow="2"
     inkscape:zoom="0.631"
     inkscape:cx="512.67829"
     inkscape:cy="607.08283"
     inkscape:document-units="px"
     inkscape:current-layer="layer1"
     showgrid="false"
     inkscape:window-width="1440"
     inkscape:window-height="848"
     inkscape:window-x="-8"
     inkscape:window-y="-8"
     inkscape:window-maximized="1"
     inkscape:snap-bbox="false"
     inkscape:snap-global="false"
     showguides="true"
     inkscape:guide-bbox="true">
    <sodipodi:guide
       orientation="0,1"
       position="-909.13728,0"
       id="guide3230" />
    <inkscape:grid
       type="xygrid"
       id="grid3281"
       empspacing="5"
       visible="true"
       enabled="true"
       snapvisiblegridlinesonly="true" />
  </sodipodi:namedview>
  <metadata
     id="metadata7">
    <rdf:RDF>
      <cc:Work
         rdf:about="">
        <dc:format>image/svg+xml</dc:format>
        <dc:type
           rdf:resource="http://purl.org/dc/dcmitype/StillImage" />
        <dc:title />
      </cc:Work>
    </rdf:RDF>
  </metadata>
  <g
     inkscape:label="Layer 1"
     inkscape:groupmode="layer"
     id="layer1"
     transform="translate(0,-52.362183)">
    <path
       style="opacity:0.1;fill:#000000;fill-opacity:1;stroke:none;display:inline"
       d="m 496.0625,69.375 c -40.83881,0.10691 -81.3379,6.83334 -120.84375,16.71875 0.0144,193.51042 0.0937,512.53125 0.0937,512.53125 l 258.65625,-0.0312 c 0,0 -0.0793,-317.52088 -0.0937,-510.2813 C 589.06098,75.8588 542.67688,68.65091 496.0625,69.375 z m 219.5,415.75 c 40.91391,85.86464 21.21315,195.9462 -45.28532,263.09731 C 611.53196,809.92698 517.38784,835.25868 435.46875,810.625 356.47415,787.92908 290.55523,721.31569 271.875,640.78125 259.42893,590.22941 266.63852,523.24185 286.31468,475.32171 286.91758,262.21356 287.58899,458.06417 288,170.84375 132.63437,248.57056 31.293896,420.88843 36.42267,594.40521 c 3.376029,155.82887 90.21459,307.49247 224.4468,387.00759 119.14796,71.8186 271.93278,87.4005 402.37894,37.4225 C 787.37244,972.4781 890.6369,871.52115 935.90625,746.46875 980.98017,626.4327 974.47586,487.1616 914.95338,373.23342 874.39666,293.38707 810.39601,226.20449 733.6875,180.1875 726.40857,175.32317 719.19466,170.36282 712,165.375 c 4.38139,111.14812 0.71386,2.99544 3.5625,319.75 z"
       id="path3927"
       inkscape:connector-curvature="0"
       sodipodi:nodetypes="cccccccccccccccccccc" />
    <path
       style="opacity:0.15;fill:#000000;fill-opacity:1;stroke:none;display:inline"
       d="m 496.1875,87.375 c -34.69666,0.19418 -69.3641,5.05701 -102.96875,12.96875 0.0143,182.76042 0.0937,476.28125 0.0937,476.28125 l 222.65625,-0.0312 c 0,0 -0.0794,-292.27088 -0.0937,-474.4063 C 576.84565,92.17786 536.54525,86.82314 496.1875,87.375 z M 730,203.125 c 1.24562,91.42217 -2.41927,182.9832 1.875,274.3125 38.30403,81.20695 28.12109,183.11678 -25.625,255.03125 C 657.09508,803.25198 569.23865,844.02425 483.37717,837.02786 412.56244,832.41 344.0419,796.52249 300.94878,740.17979 253.95198,680.34687 235.33467,598.97511 253.87606,524.99346 c 3.85947,-17.52664 10.67009,-34.37107 15.84826,-51.43094 0.604,-90.69684 0.11102,-181.39593 0.27568,-272.09377 -137.62094,81.69492 -224.081002,242.63231 -214.875,402.875 5.953284,133.54053 74.90994,263.4334 183.96022,340.64647 95.87968,69.73298 220.16952,99.46988 337.23313,78.50448 118.22056,-20.073 227.42014,-89.34647 293.99415,-189.21345 66.07998,-97.12578 92.35228,-221.29302 68.58974,-336.88774 C 917.66406,388.80009 854.84476,288.47686 764.9,223.58125 753.57588,215.13541 741.82358,207.27714 730,199.375 c 0,1.25 0,2.5 0,3.75 z"
       id="path3905"
       inkscape:connector-curvature="0"
       sodipodi:nodetypes="cccccccccccccccccccccc" />
    <path
       id="path3091"
       d="m 501,117.36218 c -29.42798,0 -58.86275,3.04296 -87.78125,9.09375 0.0358,170.75363 0.0938,430.15625 0.0938,430.15625 l 182.65625,-0.0312 c 0,0 -0.0598,-258.3969 -0.0937,-428.59375 -31.19288,-7.08243 -63.03706,-10.625 -94.875,-10.625 z m 249,120.15625 0,231.5 c 30.35196,66.05717 33.05262,141.73172 8.09375,209.5 -15.12816,37.01635 -39.49249,74.80699 -63.21875,98.90625 C 593.68007,878.61961 432.81323,884.05591 325.1875,793.76843 310.77125,781.00736 298.31193,768.791 287.15625,754.89343 222.29744,674.1166 209.90132,565.02963 250,473.45593 l 0,-234.46875 c -17.62935,12.86954 -34.49211,27.24211 -50.40625,43.15625 -166.38161,166.3816 -166.38117,436.46258 0,602.84375 166.38117,166.38122 436.43089,166.38162 602.8125,0 166.38117,-166.38117 166.38116,-436.46259 0,-602.84375 C 785.88937,265.62655 768.35707,250.75571 750,237.51843 z"
       style="opacity:0.3;fill:#000000;fill-opacity:1;stroke:none;display:inline"
       inkscape:connector-curvature="0"
       sodipodi:nodetypes="cccccccccccccccssssc" />
    <path
       style="fill:url(#linearGradient3022);fill-opacity:1;stroke:#a00000;stroke-width:20;stroke-linecap:round;stroke-linejoin:miter;stroke-miterlimit:4;stroke-opacity:1;stroke-dasharray:none;display:inline"
       d="m 501,23 c -29.42798,0 -58.86275,3.042954 -87.78125,9.09375 0.0359,170.75347 0.0937,442.15625 0.0937,442.15625 l 182.65625,-0.0312 c 0,0 -0.0657,-289.02538 -0.0937,-440.59375 C 564.68212,26.542566 532.83794,23 501,23 z m 249,130.15625 0,231.5 c 30.35196,66.05717 33.05262,141.73172 8.09375,209.5 C 742.96559,631.1726 718.60126,668.96324 694.875,693.0625 593.68007,794.25743 432.81323,799.69373 325.1875,709.40625 310.77125,696.64518 298.31193,684.42882 287.15625,670.53125 222.29744,589.75442 209.90132,480.66745 250,389.09375 L 250,154.625 c -17.62935,12.86954 -34.49211,27.24211 -50.40625,43.15625 -166.38161,166.3816 -166.38117,436.46258 0,602.84375 166.38117,166.38122 436.43089,166.38162 602.8125,0 166.38117,-166.38117 166.38116,-436.46259 0,-602.84375 C 785.88937,181.26437 768.35707,166.39353 750,153.15625 z"
       id="path2424"
       transform="translate(0,52.362183)"
       inkscape:connector-curvature="0"
       sodipodi:nodetypes="sccccsccccccccssssc" />
    <path
       style="opacity:0.5;fill:url(#linearGradient3787);fill-opacity:1;stroke:none;display:inline"
       d="m 501,23 c -29.42798,0 -58.86275,3.042954 -87.78125,9.09375 l 0.0312,74 c 60.21337,-12.59658 122.62513,-12.07583 182.65625,1.5625 L 595.875,33.625 C 564.68212,26.542566 532.83794,23 501,23 z m 249,130.15625 0,74 c 18.35731,13.23757 35.88937,28.10812 52.40625,44.625 73.7724,73.7724 114.83557,167.94142 123.1875,264.40625 C 936.06849,415.10195 895.00711,290.38211 802.40625,197.78125 785.88937,181.26437 768.35707,166.39353 750,153.15625 z M 250,154.625 c -17.62935,12.86954 -34.49211,27.24211 -50.40625,43.15625 C 106.99264,290.38235 65.931577,415.10188 76.40625,536.1875 84.758257,439.7226 125.82116,345.55384 199.59375,271.78125 215.50789,255.86711 232.37042,241.49481 250,228.625 z m 345.875,161.5625 0.15625,513.875 c 36.0112,-13.28267 69.84457,-34.18833 98.75,-63.09375 62.90457,-62.90457 88.77341,-148.85348 77.6875,-230.75 -7.76578,57.35164 -33.63561,112.69811 -77.6875,156.75 -28.90543,28.90542 -62.7388,49.81108 -98.75,63.09375 L 595.9375,421.75 595.90625,316.1875 c -0.009,-0.003 -0.0221,0.003 -0.0312,0 z M 229.53125,536.21875 c -11.0858,81.8964 14.78293,167.84543 77.6875,230.75 30.88445,30.88445 67.36719,52.7316 106.15625,65.78125 l -0.0312,-74 c -38.7786,-13.05074 -75.24799,-34.90424 -106.125,-65.78125 -44.05189,-44.05189 -69.92169,-99.3984 -77.6875,-156.75 z"
       transform="translate(0,52.362183)"
       id="path3010"
       inkscape:connector-curvature="0"
       sodipodi:nodetypes="sccccsccscsccscsccccscscccccsccsc" />
  </g>
</svg>

<svg xmlns="http://www.w3.org/2000/svg" viewBox="0 0 1000 1000">
<defs>
<linearGradient gradientTransform="matrix(5.38241 5.38241 -5.38241 5.38241 501.00017 -189.74218)" xlink:href="#linearGradient3290-7" id="linearGradient3022" y1="106.055" x1="104.436" y2="24.448" gradientUnits="userSpaceOnUse" x2="24.202"/>
<linearGradient xlink:href="#linearGradient3806-4" id="linearGradient3787" y1="70.942" y2="934.65" x2="0" gradientUnits="userSpaceOnUse"/>
<linearGradient id="linearGradient3290-7">
<stop offset="0" stop-color="#ba0000"/>
<stop offset="1" stop-color="#ff331e"/>
</linearGradient>
<linearGradient id="linearGradient3806-4">
<stop offset="0" stop-color="#fff6d5"/>
<stop offset="1" stop-color="#fff6d5" stop-opacity="0"/>
</linearGradient>
</defs>
<g transform="translate(0 -52.36218)">
<path opacity=".1" d="m496.0625,69.375c-40.8388,.1069-81.3379,6.8333-120.8438,16.7188c.0144,193.5104 .0937,512.5312 .0937,512.5312l258.6562-.0312c0,0-.0793-317.5209-.0937-510.2813c-44.814-12.4537-91.1981-19.6616-137.8125-18.9375zm219.5,415.75c40.9139,85.8646 21.2132,195.9462-45.2853,263.0973c-58.7452,61.7047-152.8893,87.0364-234.8084,62.4027c-78.9946-22.6959-144.9135-89.3093-163.5938-169.8438c-12.4461-50.5518-5.2365-117.5394 14.4397-165.4595c.6029-213.1082 1.2743-17.2575 1.6853-304.478c-155.3656,77.7268-256.7061,250.0447-251.5773,423.5615c3.376,155.8289 90.2146,307.4925 224.4468,387.0076c119.148,71.8186 271.9328,87.4005 402.3789,37.4225c124.124-46.3572 227.3885-147.3142 272.6578-272.3666c45.0739-120.0361 38.5696-259.3071-20.9529-373.2353c-40.5567-79.8464-104.5574-147.0289-181.2659-193.0459c-7.2789-4.8643-14.4928-9.8247-21.6875-14.8125c4.3814,111.1481 .7139,2.9954 3.5625,319.75z"/>
<path opacity=".15" d="m496.1875,87.375c-34.6967,.1942-69.3641,5.057-102.9688,12.9688c.0143,182.7604 .0937,476.2812 .0937,476.2812l222.6562-.0312c0,0-.0794-292.2709-.0937-474.4063c-39.0294-10.0096-79.3297-15.3644-119.6875-14.8125zm233.8125,115.75c1.2456,91.4222-2.4193,182.9832 1.875,274.3125c38.304,81.207 28.1211,183.1168-25.625,255.0312c-49.1549,70.7832-137.0113,111.5555-222.8728,104.5591c-70.8147-4.6179-139.3353-40.5054-182.4284-96.8481c-46.9968-59.8329-65.6141-141.2047-47.0727-215.1863c3.8595-17.5266 10.6701-34.3711 15.8483-51.4309c.604-90.6968 .111-181.3959 .2757-272.0938c-137.6209,81.6949-224.081,242.6323-214.875,402.875c5.9533,133.5405 74.9099,263.4334 183.9602,340.6465c95.8797,69.733 220.1695,99.4699 337.2331,78.5045c118.2206-20.073 227.4201-89.3465 293.9941-189.2134c66.08-97.1258 92.3523-221.293 68.5897-336.8877c-21.2382-108.5934-84.0575-208.9167-174.0022-273.8123c-11.3241-8.4458-23.0764-16.3041-34.9-24.2063c0,1.25 0,2.5 0,3.75z"/>
<path opacity=".3" d="m501,117.3622c-29.428,0-58.8628,3.043-87.7812,9.0938c.0358,170.7536 .0938,430.1562 .0938,430.1562l182.6562-.0312c0,0-.0598-258.3969-.0937-428.5938c-31.1929-7.0824-63.0371-10.625-94.875-10.625zm249,120.1562 0,231.5c30.352,66.0572 33.0526,141.7317 8.0938,209.5c-15.1282,37.0163-39.4925,74.807-63.2188,98.9062c-101.195,101.1949-262.0619,106.6312-369.6876,16.3437c-14.4162-12.7611-26.8756-24.9774-38.0312-38.875c-64.8588-80.7768-77.2549-189.8638-37.1562-281.4375v-234.4688c-17.6293,12.8695-34.4921,27.2421-50.4062,43.1562c-166.3816,166.3816-166.3812,436.4626 0,602.8438c166.3812,166.3812 436.4309,166.3816 602.8125,0c166.3812-166.3812 166.3812-436.4626 0-602.8438c-16.5169-16.5169-34.0492-31.3877-52.4062-44.625z"/>
<path fill="url(#linearGradient3022)" stroke="#a00000" stroke-linecap="round" stroke-width="20" d="m501,23c-29.428,0-58.8628,3.043-87.7812,9.0938c.0359,170.7535 .0937,442.1562 .0937,442.1562l182.6562-.0312c0,0-.0657-289.0254-.0937-440.5938c-31.1929-7.0825-63.0371-10.625-94.875-10.625zm249,130.1562 0,231.5c30.352,66.0572 33.0526,141.7317 8.0938,209.5c-15.1282,37.0163-39.4925,74.807-63.2188,98.9062c-101.1949,101.1949-262.0618,106.6312-369.6875,16.3438c-14.4162-12.7611-26.8756-24.9774-38.0312-38.875c-64.8588-80.7768-77.2549-189.8638-37.1562-281.4375v-234.4688c-17.6293,12.8695-34.4921,27.2421-50.4062,43.1562c-166.3816,166.3816-166.3812,436.4626 0,602.8438c166.3812,166.3812 436.4309,166.3816 602.8125,0c166.3812-166.3812 166.3812-436.4626 0-602.8438c-16.5169-16.5169-34.0492-31.3877-52.4062-44.625z" transform="translate(0 52.36218)"/>
<path opacity=".5" fill="url(#linearGradient3787)" d="m501,23c-29.428,0-58.8628,3.043-87.7812,9.0938l.0312,74c60.2134-12.5966 122.6251-12.0758 182.6562,1.5625l-.0312-74.0312c-31.1929-7.0824-63.0371-10.625-94.875-10.625zm249,130.1562 0,74c18.3573,13.2376 35.8894,28.1081 52.4062,44.625c73.7724,73.7724 114.8356,167.9414 123.1875,264.4062c10.4747-121.0856-30.5866-245.8054-123.1875-338.4062c-16.5169-16.5169-34.0492-31.3877-52.4062-44.625zm-500,1.4688c-17.6293,12.8695-34.4921,27.2421-50.4062,43.1562c-92.6011,92.6011-133.6622,217.3206-123.1875,338.4062c8.352-96.4649 49.4149-190.6337 123.1875-264.4062c15.9141-15.9141 32.7767-30.2864 50.4062-43.1562zm345.875,161.5625 .1562,513.875c36.0112-13.2827 69.8446-34.1883 98.75-63.0938c62.9046-62.9046 88.7734-148.8535 77.6875-230.75c-7.7658,57.3516-33.6356,112.6981-77.6875,156.75c-28.9054,28.9054-62.7388,49.8111-98.75,63.0938l-.0938-408.3125l-.0312-105.5625c-.009-.003-.0221,.003-.0312,0zm-366.3438,220.0312c-11.0858,81.8964 14.7829,167.8454 77.6875,230.75c30.8845,30.8845 67.3672,52.7316 106.1562,65.7812l-.0312-74c-38.7786-13.0507-75.248-34.9042-106.125-65.7812c-44.0519-44.0519-69.9217-99.3984-77.6875-156.75z" transform="translate(0 52.36218)"/>
</g>
</svg>
